src/16/code-16.svg

<svg baseProfile="tiny" xmlns="http://www.w3.org/2000/svg" viewBox="0 0 16 16"><path d="M5.042 9.137a.5.5 0 0 1-.354-.853l1.268-1.269-1.268-1.269a.5.5 0 0 1 .707-.707l1.621 1.622a.5.5 0 0 1 0 .707L5.396 8.99a.5.5 0 0 1-.354.147zM11 8H9a.5.5 0 0 1 0-1h2a.5.5 0 0 1 0 1z"/><path d="M15.5 15H.5a.5.5 0 0 1-.5-.5v-13A.5.5 0 0 1 .5 1h15a.5.5 0 0 1 .5.5v13a.5.5 0 0 1-.5.5zM1 14h14V2H1v12z"/><path d="M13.5 13h-11a.5.5 0 0 1-.5-.5v-9a.5.5 0 0 1 .5-.5h11a.5.5 0 0 1 .5.5v9a.5.5 0 0 1-.5.5zM3 12h10V4H3v8z"/></svg>

<?xml version="1.0" encoding="iso-8859-1"?>
<!-- Generator: Adobe Illustrator 19.1.0, SVG Export Plug-In . SVG Version: 6.00 Build 0)  -->
<!DOCTYPE svg PUBLIC "-//W3C//DTD SVG 1.1 Tiny//EN" "http://www.w3.org/Graphics/SVG/1.1/DTD/svg11-tiny.dtd">
<svg version="1.1" baseProfile="tiny" xmlns="http://www.w3.org/2000/svg" xmlns:xlink="http://www.w3.org/1999/xlink" x="0px"
	 y="0px" viewBox="0 0 16 16" xml:space="preserve">
<g id="Layer_1">
	<path d="M5.042,9.137c-0.128,0-0.256-0.049-0.354-0.146c-0.195-0.195-0.195-0.512,0-0.707l1.268-1.269L4.688,5.746
		c-0.195-0.195-0.195-0.512,0-0.707c0.195-0.195,0.512-0.195,0.707,0l1.621,1.622c0.195,0.195,0.195,0.512,0,0.707L5.396,8.99
		C5.298,9.088,5.17,9.137,5.042,9.137z"/>
	<path d="M11,8H9C8.724,8,8.5,7.776,8.5,7.5S8.724,7,9,7h2c0.276,0,0.5,0.224,0.5,0.5S11.276,8,11,8z"/>
	<path d="M15.5,15h-15C0.224,15,0,14.776,0,14.5v-13C0,1.224,0.224,1,0.5,1h15C15.776,1,16,1.224,16,1.5v13
		C16,14.776,15.776,15,15.5,15z M1,14h14V2H1V14z"/>
	<path d="M13.5,13h-11C2.224,13,2,12.776,2,12.5v-9C2,3.224,2.224,3,2.5,3h11C13.776,3,14,3.224,14,3.5v9
		C14,12.776,13.776,13,13.5,13z M3,12h10V4H3V12z"/>
</g>
<g id="Layer_2">
</g>
<g id="Layer_3">
</g>
</svg>
